assets/icons/highlighter.svg

<svg width="20" height="20" viewBox="0 0 20 20" fill="none" xmlns="http://www.w3.org/2000/svg">
<path d="M11.4458 2.91699L7.32811 7.03464L13.7987 13.5052L17.9163 9.38758M5.5634 13.5052L7.32811 15.2699L5.41634 17.0837H2.08301L5.5634 13.5052ZM4.97517 12.917L7.91634 15.8582C9.97517 13.7993 11.7398 14.3876 11.7398 14.3876L13.2104 12.917L7.91634 7.62288L6.44575 9.09349C6.44575 9.09349 7.03399 10.8582 4.97517 12.917Z" stroke="currentColor" stroke-width="1.5" stroke-linecap="round" stroke-linejoin="round"/>
</svg>

<svg xmlns="http://www.w3.org/2000/svg" width="20" height="20" fill="none" viewBox="0 0 20 20"><path stroke="currentColor" stroke-linecap="round" stroke-linejoin="round" stroke-width="1.5" d="M11.446 2.917 7.328 7.035l6.47 6.47 4.118-4.117M5.563 13.505l1.765 1.765-1.912 1.814H2.083zm-.588-.588 2.941 2.941c2.06-2.059 3.824-1.47 3.824-1.47l1.47-1.471-5.294-5.294-1.47 1.47s.588 1.765-1.47 3.824"/></svg>
